X: 39360
T: Tamerack'er Down
R: reel
M: 4/4
K: Amajor
f|ecBc AFEF|A2 Af ecce|=g2 fa ecBc|AFEF A/A/A Af|ecBc A/A/A A:|
f|eAce =g2 fa|eAce fBBf|ecce f2 bf|ecBc A/A/A A:|

